X: 12247
T: Fairhaired Boy, The
R: reel
M: 4/4
K: Dmajor
~A3G FGAB|=cAdc BG~G2|ABAG FAde|fdec Add2:|
~f3d e2de|~f3d ecA2|~f3d e2de|fdec Add2|
~f3d e2de|~f3d edcB|ABcd efge|~a3g fdd2||

